src/assets/insta_grey.svg

<svg width="19" height="18" viewBox="0 0 19 18" fill="none" xmlns="http://www.w3.org/2000/svg">
<g id="Insta">
<path id="Vector" d="M13.1971 1.90193C14.1812 1.90476 15.1242 2.28248 15.8201 2.95259C16.516 3.6227 16.9082 4.53075 16.9111 5.47843V12.6307C16.9082 13.5783 16.516 14.4864 15.8201 15.1565C15.1242 15.8266 14.1812 16.2043 13.1971 16.2072H5.76976C4.78563 16.2043 3.84265 15.8266 3.14677 15.1565C2.45088 14.4864 2.05864 13.5783 2.0557 12.6307V5.47843C2.05864 4.53075 2.45088 3.6227 3.14677 2.95259C3.84265 2.28248 4.78563 1.90476 5.76976 1.90193H13.1971ZM13.1971 0.471558H5.76976C2.91 0.471558 0.570312 2.72459 0.570312 5.47843V12.6307C0.570312 15.3845 2.91 17.6375 5.76976 17.6375H13.1971C16.0568 17.6375 18.3965 15.3845 18.3965 12.6307V5.47843C18.3965 2.72459 16.0568 0.471558 13.1971 0.471558Z" fill="#2E4049"/>
<path id="Vector_2" d="M14.3117 5.47876C14.0913 5.47876 13.8759 5.41583 13.6927 5.29794C13.5095 5.18006 13.3667 5.0125 13.2824 4.81645C13.198 4.62041 13.176 4.40469 13.219 4.19657C13.262 3.98846 13.3681 3.79729 13.5239 3.64725C13.6797 3.4972 13.8782 3.39502 14.0943 3.35362C14.3105 3.31223 14.5345 3.33347 14.7381 3.41468C14.9416 3.49588 15.1156 3.63339 15.2381 3.80983C15.3605 3.98626 15.4258 4.19369 15.4258 4.40588C15.4261 4.54686 15.3975 4.68651 15.3417 4.81681C15.2858 4.94712 15.2037 5.06551 15.1002 5.16519C14.9967 5.26488 14.8737 5.3439 14.7384 5.39771C14.6031 5.45152 14.4581 5.47906 14.3117 5.47876ZM9.4839 6.19375C10.0715 6.19375 10.646 6.36155 11.1346 6.67594C11.6232 6.99032 12.004 7.43717 12.2289 7.95997C12.4538 8.48277 12.5126 9.05805 12.398 9.61305C12.2833 10.1681 12.0004 10.6779 11.5848 11.078C11.1693 11.4781 10.6399 11.7506 10.0635 11.861C9.48719 11.9714 8.88979 11.9148 8.34688 11.6982C7.80397 11.4817 7.33994 11.1149 7.01346 10.6444C6.68699 10.1739 6.51273 9.62075 6.51273 9.05488C6.51357 8.29631 6.82688 7.56904 7.3839 7.03265C7.94091 6.49626 8.69615 6.19456 9.4839 6.19375ZM9.4839 4.76338C8.60247 4.76338 7.74085 5.01507 7.00797 5.48663C6.27509 5.95818 5.70389 6.62842 5.36658 7.41259C5.02927 8.19676 4.94102 9.05964 5.11298 9.89211C5.28493 10.7246 5.70938 11.4892 6.33264 12.0894C6.9559 12.6896 7.74998 13.0983 8.61447 13.2639C9.47895 13.4295 10.375 13.3445 11.1893 13.0197C12.0037 12.6949 12.6997 12.1448 13.1894 11.4391C13.6791 10.7334 13.9404 9.90365 13.9404 9.05488C13.9404 7.9167 13.4709 6.82514 12.6352 6.02033C11.7994 5.21552 10.6658 4.76338 9.4839 4.76338Z" fill="#2E4049"/>
</g>
</svg>

<svg width="19" height="18" fill="none" xmlns="http://www.w3.org/2000/svg"><g fill="#2E4049"><path d="M13.197 1.902c.984.003 1.927.38 2.623 1.05a3.521 3.521 0 0 1 1.091 2.526v7.153a3.521 3.521 0 0 1-1.09 2.525 3.8 3.8 0 0 1-2.624 1.051H5.77a3.8 3.8 0 0 1-2.623-1.05 3.522 3.522 0 0 1-1.091-2.526V5.478a3.521 3.521 0 0 1 1.09-2.525A3.799 3.799 0 0 1 5.77 1.902h7.427Zm0-1.43H5.77C2.91.472.57 2.725.57 5.478v7.153c0 2.753 2.34 5.006 5.2 5.006h7.427c2.86 0 5.2-2.253 5.2-5.006V5.478c0-2.753-2.34-5.006-5.2-5.006Z"/><path d="M14.312 5.479c-.22 0-.436-.063-.62-.181a1.082 1.082 0 0 1-.41-.482 1.035 1.035 0 0 1-.063-.62c.043-.208.15-.399.305-.549.156-.15.354-.252.57-.293.216-.042.44-.02.644.06.204.082.378.22.5.396a1.045 1.045 0 0 1-.138 1.355 1.149 1.149 0 0 1-.788.314Zm-4.828.715c.588 0 1.162.168 1.65.482.49.314.87.761 1.095 1.284.225.523.284 1.098.169 1.653a2.83 2.83 0 0 1-.813 1.465c-.416.4-.945.673-1.522.783a3.077 3.077 0 0 1-1.716-.163 2.95 2.95 0 0 1-1.334-1.054 2.786 2.786 0 0 1-.5-1.59c0-.758.314-1.485.87-2.021a3.033 3.033 0 0 1 2.1-.84Zm0-1.43a4.58 4.58 0 0 0-2.476.723 4.33 4.33 0 0 0-1.641 1.926 4.144 4.144 0 0 0-.254 2.48 4.245 4.245 0 0 0 1.22 2.196 4.512 4.512 0 0 0 2.281 1.175c.865.166 1.761.08 2.575-.244a4.425 4.425 0 0 0 2-1.58 4.18 4.18 0 0 0 .751-2.385c0-1.138-.47-2.23-1.305-3.035a4.545 4.545 0 0 0-3.151-1.257Z"/></g></svg>
